X:1
T:Leaf, CM
T:Leaf, CM
T:Arr. from Samuel W. Ball by W. B. Bradbury,1863
T:Public Domain Courtesy of the Cyber Hymnal™
C:Arr. from Samuel W. Ball by W. B. Bradbury,1863
Z:Public Domain
Z:Courtesy of the Cyber Hymnal™
%%score 1 2
L:1/8
Q:1/4=100
M:3/4
K:Ab
V:1 treble 
V:2 bass 
V:1
 [CE]2 | [CE][CE] [CE]2 [DF]2 | [DF][CE] [CE]2 [EA]2 | [EA]3 [EG] [EF][EG] | [EA]4 [CE]2 | %5
 [Ec][Ec] [Fd]2 [Ec]2 | [Ec][DB] [DB]2 c2 | d3 c BA | G4 [CE]2 | [DF]3 [DF] [CE][B,E] | [CE]4 |] %11
V:2
 [A,,A,]2 | [A,,A,][A,,A,] [A,,A,]2 [A,,A,]2 | [A,,A,][A,,A,] [A,,A,]2 [A,,C]2 | %3
 [E,C]3 [E,B,] [E,A,][E,B,] | [A,,C]4 [A,,A,]2 | [A,,A,][A,,A,] [A,,A,]2 [A,,A,]2 | %6
 [E,A,][E,G,] [E,G,]2 C2 | D3 C B,A, | G,4 [A,,A,]2 | [D,A,]3 [D,A,] [E,A,][E,G,] | [A,,A,]4 |] %11

